X:1
T:The Bag of Spuds
M:4/4
L:1/8
R:Reel
S:Cherish The Ladies: At Home
K:Ador
|:A2eA cAeA|ABcd e2dB|G2dG BGdG|GB~B2 GBdB|
A2eA cAeA|ABcd e2dB|ABcd eg~g2|dBGA BAA2:|
|:a2ea ageg|agbg agef|gedc BGBd|gfga bgeg|
a2ea ageg|agbg agef|d2de g2ge|dBGA BAA2:|
